markup/src/img/grid-img-13.svg

<svg width="79" height="82" viewBox="0 0 79 82" fill="none" xmlns="http://www.w3.org/2000/svg">
<path fill-rule="evenodd" clip-rule="evenodd" d="M4.89132 18.4815C3.37895 18.947 2.52777 20.5589 2.99016 22.0817L4.18045 26.0018L23.1884 19.8108C23.9446 19.578 24.745 20.0065 24.9761 20.7679C25.2074 21.5293 24.7818 22.3353 24.0256 22.568L5.01768 28.759L19.6885 77.0749C20.1509 78.598 21.7517 79.455 23.2641 78.9893L51.8732 70.1826C53.3856 69.7169 54.2368 68.1052 53.7744 66.5821L47.305 44.7509C47.0738 43.9895 47.4994 43.1836 48.2556 42.9509C49.0118 42.718 49.8122 43.1466 50.0434 43.9079L56.5128 65.7395C57.4375 68.7849 55.7352 72.0084 52.7104 72.9396L24.1013 81.7464C21.0766 82.6777 17.8749 80.9636 16.9501 77.9182L0.251765 22.9246C-0.672995 19.8791 1.02936 16.6553 4.05417 15.7242L29.1857 8.02919C29.9418 7.79644 30.7423 8.22496 30.9734 8.98634C31.2047 9.74773 30.7791 10.5537 30.0229 10.7865L4.89132 18.4815Z" fill="white"/>
<path fill-rule="evenodd" clip-rule="evenodd" d="M51.6394 59.6057L17.5623 70.0961L19.6684 77.0316C20.1308 78.5547 21.7316 79.4117 23.244 78.9461L51.8443 70.1422C53.3567 69.6766 54.2078 68.0648 53.7455 66.5418L51.6394 59.6057ZM13.9867 68.1816L16.9299 77.875C17.8547 80.9204 21.0564 82.6345 24.0812 81.7032L52.6815 72.8993C55.7062 71.968 57.4087 68.7446 56.4839 65.6988L53.5406 56.0055L13.9867 68.1816Z" fill="white"/>
<path fill-rule="evenodd" clip-rule="evenodd" d="M32.4343 69.6542C32.2032 68.893 32.6288 68.0872 33.3849 67.8544L37.4925 66.5901C38.2487 66.3573 39.0491 66.7854 39.2804 67.5473C39.5115 68.3085 39.0859 69.1143 38.3297 69.3472L34.2222 70.6114C33.466 70.8443 32.6656 70.4161 32.4343 69.6542Z" fill="white"/>
<path fill-rule="evenodd" clip-rule="evenodd" d="M31.255 34.8847L31.0733 36.2706C30.6984 39.1309 30.0452 42.3871 29.3961 45.0871C32.2433 44.1358 35.3214 42.6352 38.4184 40.6049L39.5616 39.8556L40.8598 40.2772C43.8843 41.2594 47.2149 41.8067 50.7227 41.8067C65.4434 41.8067 76.1365 32.4817 76.1365 22.3449C76.1365 12.2082 65.4434 2.88322 50.7227 2.88322C36.0019 2.88322 25.309 12.2082 25.309 22.3449C25.309 26.578 27.0936 30.5782 30.2868 33.8828L31.255 34.8847ZM28.2344 35.8933C24.6026 32.1348 22.4454 27.4389 22.4454 22.3449C22.4454 10.0042 35.1056 0 50.7227 0C66.3397 0 79 10.0042 79 22.3449C79 34.6857 66.3397 44.6899 50.7227 44.6899C46.9201 44.6899 43.2927 44.0967 39.9809 43.0212C35.771 45.781 31.5113 47.6713 27.6573 48.5778C26.6039 48.8256 25.732 47.7684 26.0208 46.7187C26.8079 43.8573 27.7593 39.5178 28.2344 35.8933Z" fill="white"/>
<path fill-rule="evenodd" clip-rule="evenodd" d="M35.6892 16.5785C35.6892 15.7823 36.3302 15.1369 37.121 15.1369H62.1768C62.9676 15.1369 63.6086 15.7823 63.6086 16.5785C63.6086 17.3747 62.9676 18.0201 62.1768 18.0201H37.121C36.3302 18.0201 35.6892 17.3747 35.6892 16.5785ZM35.6892 23.7865C35.6892 22.9903 36.3302 22.3449 37.121 22.3449H62.1768C62.9676 22.3449 63.6086 22.9903 63.6086 23.7865C63.6086 24.5827 62.9676 25.2282 62.1768 25.2282H37.121C36.3302 25.2282 35.6892 24.5827 35.6892 23.7865ZM35.6892 30.2738C35.6892 29.4776 36.3302 28.8322 37.121 28.8322H50.7227C51.5135 28.8322 52.1545 29.4776 52.1545 30.2738C52.1545 31.07 51.5135 31.7154 50.7227 31.7154H37.121C36.3302 31.7154 35.6892 31.07 35.6892 30.2738Z" fill="white"/>
</svg>

<svg width="79" height="82" fill="none" xmlns="http://www.w3.org/2000/svg"><path fill-rule="evenodd" clip-rule="evenodd" d="M4.891 18.482a2.887 2.887 0 0 0-1.9 3.6l1.19 3.92 19.007-6.191a1.43 1.43 0 0 1 1.788.957 1.443 1.443 0 0 1-.95 1.8L5.018 28.759l14.67 48.316a2.86 2.86 0 0 0 3.576 1.914l28.61-8.806a2.887 2.887 0 0 0 1.9-3.6L47.305 44.75a1.443 1.443 0 0 1 .95-1.8 1.43 1.43 0 0 1 1.788.957l6.47 21.832c.925 3.045-.778 6.268-3.803 7.2l-28.609 8.806c-3.024.932-6.226-.782-7.15-3.828L.25 22.925c-.924-3.046.778-6.27 3.803-7.2l25.132-7.696a1.43 1.43 0 0 1 1.787.957 1.443 1.443 0 0 1-.95 1.8L4.89 18.483z" fill="#fff"/><path fill-rule="evenodd" clip-rule="evenodd" d="M51.64 59.606l-34.078 10.49 2.106 6.936a2.86 2.86 0 0 0 3.576 1.914l28.6-8.804a2.887 2.887 0 0 0 1.901-3.6l-2.106-6.936zm-37.653 8.576l2.943 9.693c.925 3.045 4.126 4.76 7.151 3.828l28.6-8.804c3.025-.931 4.728-4.154 3.803-7.2l-2.943-9.694-39.554 12.177z" fill="#fff"/><path fill-rule="evenodd" clip-rule="evenodd" d="M32.434 69.654a1.443 1.443 0 0 1 .95-1.8l4.108-1.264a1.43 1.43 0 0 1 1.788.957 1.443 1.443 0 0 1-.95 1.8l-4.108 1.264a1.43 1.43 0 0 1-1.788-.957zm-1.179-34.769l-.182 1.386c-.375 2.86-1.028 6.116-1.677 8.816 2.847-.951 5.925-2.452 9.022-4.482l1.144-.75 1.298.422c3.024.982 6.355 1.53 9.863 1.53 14.72 0 25.413-9.325 25.413-19.462S65.444 2.883 50.724 2.883c-14.721 0-25.414 9.325-25.414 19.462 0 4.233 1.785 8.233 4.978 11.538l.968 1.002zm-3.02 1.008c-3.632-3.758-5.79-8.454-5.79-13.548C22.445 10.005 35.105 0 50.723 0 66.34 0 79 10.004 79 22.345c0 12.34-12.66 22.345-28.277 22.345-3.803 0-7.43-.593-10.742-1.669-4.21 2.76-8.47 4.65-12.324 5.557-1.053.248-1.925-.81-1.636-1.86.787-2.86 1.738-7.2 2.213-10.825z" fill="#fff"/><path fill-rule="evenodd" clip-rule="evenodd" d="M35.69 16.578c0-.796.64-1.441 1.431-1.441h25.056c.79 0 1.432.645 1.432 1.441 0 .797-.641 1.442-1.432 1.442H37.12c-.79 0-1.432-.645-1.432-1.442zm0 7.209c0-.797.64-1.442 1.431-1.442h25.056c.79 0 1.432.645 1.432 1.442 0 .796-.641 1.441-1.432 1.441H37.12c-.79 0-1.432-.645-1.432-1.442zm0 6.487c0-.796.64-1.442 1.431-1.442h13.602c.79 0 1.431.646 1.431 1.442 0 .796-.64 1.441-1.431 1.441H37.12c-.79 0-1.432-.645-1.432-1.441z" fill="#fff"/></svg>
